src/img/icon-bubble.svg

<svg width="23" height="23" viewBox="0 0 23 23" fill="none" xmlns="http://www.w3.org/2000/svg">
<path d="M11.5323 0.204102C1.2101 0.204102 -3.42275 12.3728 4.61777 18.4374V22.365L8.37265 20.2874C15.4261 22.2562 22.5291 17.3244 22.5291 10.4585C22.5341 4.79458 17.6086 0.204102 11.5323 0.204102ZM12.693 13.9607L9.84584 11.0125L4.36976 14.0349L10.3766 7.67847L13.2237 10.6267L18.6998 7.60427L12.693 13.9607Z" fill="#11D8EE"/>
</svg>

<svg width="23" height="23" fill="none" xmlns="http://www.w3.org/2000/svg"><path d="M11.532.204C1.21.204-3.423 12.373 4.618 18.437v3.928l3.755-2.078c7.053 1.97 14.156-2.963 14.156-9.828C22.534 4.795 17.61.204 11.532.204zm1.161 13.757l-2.847-2.949-5.476 3.023 6.007-6.357 2.847 2.949L18.7 7.604l-6.007 6.357z" fill="#11D8EE"/></svg>
